public/images/jeux/arkanoid/logo_arkanoid.svg

<svg xmlns="http://www.w3.org/2000/svg" width="500" height="345" fill="none"><path fill="#fff" d="M0 0h500v345H0z"/><path fill="#000" d="M36.78 199v-53.9h5.74v13.3h27.16c1.54 0 2.94.397 4.2 1.19a8.134 8.134 0 0 1 3.08 3.08c.793 1.26 1.19 2.66 1.19 4.2v23.66c0 1.54-.397 2.963-1.19 4.27-.747 1.26-1.773 2.287-3.08 3.08-1.26.747-2.66 1.12-4.2 1.12h-32.9Zm8.54-5.74h24.36c.747 0 1.377-.257 1.89-.77.56-.56.84-1.213.84-1.96v-23.66c0-.747-.28-1.377-.84-1.89-.513-.56-1.143-.84-1.89-.84H45.32c-.747 0-1.4.28-1.96.84-.56.513-.84 1.143-.84 1.89v23.66c0 .747.28 1.4.84 1.96a2.81 2.81 0 0 0 1.96.77ZM83.33 199v-32.13c0-1.54.373-2.94 1.12-4.2.793-1.307 1.82-2.333 3.08-3.08a8.08 8.08 0 0 1 4.27-1.19h22.819v5.74h-22.82c-.746 0-1.4.28-1.96.84-.513.513-.77 1.143-.77 1.89V199h-5.74Zm44.22 0a8.454 8.454 0 0 1-4.27-1.12 9.7 9.7 0 0 1-3.08-3.08 8.456 8.456 0 0 1-1.12-4.27v-23.66c0-1.54.373-2.94 1.12-4.2.793-1.307 1.82-2.333 3.08-3.08a8.078 8.078 0 0 1 4.27-1.19h24.36c1.586 0 3.01.397 4.27 1.19a8.141 8.141 0 0 1 3.08 3.08c.793 1.26 1.19 2.66 1.19 4.2v14.7h-35.63v8.96c0 .747.256 1.4.77 1.96a2.81 2.81 0 0 0 1.96.77h32.9V199h-32.9Zm-2.73-23.17h29.82v-8.96c0-.747-.28-1.377-.84-1.89-.514-.56-1.144-.84-1.89-.84h-24.36c-.747 0-1.4.28-1.96.84-.514.513-.77 1.143-.77 1.89v8.96ZM176.087 199a8.454 8.454 0 0 1-4.27-1.12 9.7 9.7 0 0 1-3.08-3.08 8.456 8.456 0 0 1-1.12-4.27v-14.7h35.56v-8.96c0-.747-.28-1.377-.84-1.89-.514-.56-1.144-.84-1.89-.84h-32.83v-5.74h32.83c1.586 0 3.01.397 4.27 1.19a8.141 8.141 0 0 1 3.08 3.08c.793 1.26 1.19 2.66 1.19 4.2V199h-32.9Zm0-5.74h27.09v-11.69h-29.82v8.96c0 .747.256 1.4.77 1.96a2.81 2.81 0 0 0 1.96.77ZM216.36 199v-53.9h5.74v30.73h11.2l15.96-17.43h7.56v.07l-18.41 20.23 18.34 20.23v.07h-7.49l-15.96-17.43h-11.2V199h-5.74Zm64.326 0v-53.9h5.74v13.3h27.16c1.54 0 2.94.397 4.2 1.19a8.127 8.127 0 0 1 3.08 3.08c.794 1.26 1.19 2.66 1.19 4.2v23.66c0 1.54-.396 2.963-1.19 4.27-.746 1.26-1.773 2.287-3.08 3.08-1.26.747-2.66 1.12-4.2 1.12h-32.9Zm8.54-5.74h24.36c.747 0 1.377-.257 1.89-.77.56-.56.84-1.213.84-1.96v-23.66c0-.747-.28-1.377-.84-1.89-.513-.56-1.143-.84-1.89-.84h-24.36c-.746 0-1.4.28-1.96.84-.56.513-.84 1.143-.84 1.89v23.66c0 .747.28 1.4.84 1.96.56.513 1.214.77 1.96.77Zm38.01 5.74v-32.13c0-1.54.373-2.94 1.12-4.2.793-1.307 1.82-2.333 3.08-3.08a8.078 8.078 0 0 1 4.27-1.19h22.82v5.74h-22.82c-.747 0-1.4.28-1.96.84-.514.513-.77 1.143-.77 1.89V199h-5.74Zm35.82 0v-40.6h5.74V199h-5.74Zm0-48.16v-5.74h5.74v5.74h-5.74ZM384.991 199a8.456 8.456 0 0 1-4.27-1.12 9.71 9.71 0 0 1-3.08-3.08 8.466 8.466 0 0 1-1.12-4.27v-23.66c0-1.54.374-2.94 1.12-4.2.794-1.307 1.82-2.333 3.08-3.08a8.08 8.08 0 0 1 4.27-1.19h32.76v5.74h-32.76c-.746 0-1.4.28-1.96.84-.513.513-.77 1.143-.77 1.89v23.66c0 .747.257 1.4.77 1.96.56.513 1.214.77 1.96.77h32.9V199h-32.9Zm39.045 0v-53.9h5.74v30.73h11.2l15.96-17.43h7.56v.07l-18.41 20.23 18.34 20.23v.07h-7.49l-15.96-17.43h-11.2V199h-5.74ZM38.25 211.425a2.625 2.625 0 1 1-5.25 0 2.625 2.625 0 0 1 5.25 0Zm10.5 0a2.625 2.625 0 1 1-5.25 0 2.625 2.625 0 0 1 5.25 0Zm10.5 0a2.625 2.625 0 1 1-5.25 0 2.625 2.625 0 0 1 5.25 0Zm10.5 0a2.625 2.625 0 1 1-5.25 0 2.625 2.625 0 0 1 5.25 0Zm10.5 0a2.625 2.625 0 1 1-5.25 0 2.625 2.625 0 0 1 5.25 0Zm10.5 0a2.625 2.625 0 1 1-5.25 0 2.625 2.625 0 0 1 5.25 0Zm10.5 0a2.625 2.625 0 1 1-5.25 0 2.625 2.625 0 0 1 5.25 0Zm10.5 0a2.625 2.625 0 1 1-5.25 0 2.625 2.625 0 0 1 5.25 0Zm10.5 0a2.625 2.625 0 1 1-5.25 0 2.625 2.625 0 0 1 5.25 0Zm10.5 0a2.625 2.625 0 1 1-5.25 0 2.625 2.625 0 0 1 5.25 0Zm10.5 0a2.625 2.625 0 1 1-5.25 0 2.625 2.625 0 0 1 5.25 0Zm10.5 0a2.625 2.625 0 1 1-5.25 0 2.625 2.625 0 0 1 5.25 0Zm10.5 0a2.625 2.625 0 1 1-5.25 0 2.625 2.625 0 0 1 5.25 0Zm10.5 0a2.625 2.625 0 1 1-5.25 0 2.625 2.625 0 0 1 5.25 0Zm10.5 0a2.625 2.625 0 1 1-5.25 0 2.625 2.625 0 0 1 5.25 0Zm10.5 0a2.625 2.625 0 1 1-5.25 0 2.625 2.625 0 0 1 5.25 0Zm10.5 0a2.625 2.625 0 1 1-5.25 0 2.625 2.625 0 0 1 5.25 0Zm10.5 0a2.625 2.625 0 1 1-5.25 0 2.625 2.625 0 0 1 5.25 0Zm10.5 0a2.625 2.625 0 1 1-5.25 0 2.625 2.625 0 0 1 5.25 0Zm10.5 0a2.625 2.625 0 1 1-5.25 0 2.625 2.625 0 0 1 5.25 0Zm10.5 0a2.625 2.625 0 1 1-5.25 0 2.625 2.625 0 0 1 5.25 0Zm10.5 0a2.625 2.625 0 1 1-5.25 0 2.625 2.625 0 0 1 5.25 0Zm10.5 0a2.625 2.625 0 1 1-5.25 0 2.625 2.625 0 0 1 5.25 0Zm10.5 0a2.625 2.625 0 1 1-5.25 0 2.625 2.625 0 0 1 5.25 0Zm10.5 0a2.625 2.625 0 1 1-5.25 0 2.625 2.625 0 0 1 5.25 0Zm10.5 0a2.625 2.625 0 1 1-5.25 0 2.625 2.625 0 0 1 5.25 0Zm10.5 0a2.625 2.625 0 1 1-5.25 0 2.625 2.625 0 0 1 5.25 0Zm10.5 0a2.625 2.625 0 1 1-5.25 0 2.625 2.625 0 0 1 5.25 0Zm10.5 0a2.625 2.625 0 1 1-5.25 0 2.625 2.625 0 0 1 5.25 0Zm10.5 0a2.625 2.625 0 1 1-5.25 0 2.625 2.625 0 0 1 5.25 0Zm10.5 0a2.625 2.625 0 1 1-5.25 0 2.625 2.625 0 0 1 5.25 0Zm10.5 0a2.625 2.625 0 1 1-5.25 0 2.625 2.625 0 0 1 5.25 0Zm10.5 0a2.625 2.625 0 1 1-5.25 0 2.625 2.625 0 0 1 5.25 0Zm10.5 0a2.625 2.625 0 1 1-5.25 0 2.625 2.625 0 0 1 5.25 0Zm10.5 0a2.625 2.625 0 1 1-5.25 0 2.625 2.625 0 0 1 5.25 0Zm10.5 0a2.625 2.625 0 1 1-5.25 0 2.625 2.625 0 0 1 5.25 0Zm10.5 0a2.625 2.625 0 1 1-5.25 0 2.625 2.625 0 0 1 5.25 0Zm10.5 0a2.625 2.625 0 1 1-5.25 0 2.625 2.625 0 0 1 5.25 0Zm10.5 0a2.625 2.625 0 1 1-5.25 0 2.625 2.625 0 0 1 5.25 0Zm10.5 0a2.625 2.625 0 1 1-5.25 0 2.625 2.625 0 0 1 5.25 0Zm10.5 0a2.625 2.625 0 1 1-5.25 0 2.625 2.625 0 0 1 5.25 0Z"/></svg>

<svg width="500" height="345" viewBox="0 0 500 345" fill="none" xmlns="http://www.w3.org/2000/svg">
<rect width="500" height="345" fill="white"/>
<path d="M36.78 199V145.1H42.52V158.4H69.68C71.22 158.4 72.62 158.797 73.88 159.59C75.1867 160.337 76.2133 161.363 76.96 162.67C77.7533 163.93 78.15 165.33 78.15 166.87V190.53C78.15 192.07 77.7533 193.493 76.96 194.8C76.2133 196.06 75.1867 197.087 73.88 197.88C72.62 198.627 71.22 199 69.68 199H36.78ZM45.32 193.26H69.68C70.4267 193.26 71.0567 193.003 71.57 192.49C72.13 191.93 72.41 191.277 72.41 190.53V166.87C72.41 166.123 72.13 165.493 71.57 164.98C71.0567 164.42 70.4267 164.14 69.68 164.14H45.32C44.5733 164.14 43.92 164.42 43.36 164.98C42.8 165.493 42.52 166.123 42.52 166.87V190.53C42.52 191.277 42.8 191.93 43.36 192.49C43.92 193.003 44.5733 193.26 45.32 193.26ZM83.3295 199V166.87C83.3295 165.33 83.7028 163.93 84.4495 162.67C85.2428 161.363 86.2695 160.337 87.5295 159.59C88.8361 158.797 90.2595 158.4 91.7995 158.4H114.619V164.14H91.7995C91.0528 164.14 90.3995 164.42 89.8395 164.98C89.3261 165.493 89.0695 166.123 89.0695 166.87V199H83.3295ZM127.55 199C126.01 199 124.586 198.627 123.28 197.88C122.02 197.087 120.993 196.06 120.2 194.8C119.453 193.493 119.08 192.07 119.08 190.53V166.87C119.08 165.33 119.453 163.93 120.2 162.67C120.993 161.363 122.02 160.337 123.28 159.59C124.586 158.797 126.01 158.4 127.55 158.4H151.91C153.496 158.4 154.92 158.797 156.18 159.59C157.486 160.337 158.513 161.363 159.26 162.67C160.053 163.93 160.45 165.33 160.45 166.87V181.57H124.82V190.53C124.82 191.277 125.076 191.93 125.59 192.49C126.15 193.003 126.803 193.26 127.55 193.26H160.45V199H127.55ZM124.82 175.83H154.64V166.87C154.64 166.123 154.36 165.493 153.8 164.98C153.286 164.42 152.656 164.14 151.91 164.14H127.55C126.803 164.14 126.15 164.42 125.59 164.98C125.076 165.493 124.82 166.123 124.82 166.87V175.83ZM176.087 199C174.547 199 173.123 198.627 171.817 197.88C170.557 197.087 169.53 196.06 168.737 194.8C167.99 193.493 167.617 192.07 167.617 190.53V175.83H203.177V166.87C203.177 166.123 202.897 165.493 202.337 164.98C201.823 164.42 201.193 164.14 200.447 164.14H167.617V158.4H200.447C202.033 158.4 203.457 158.797 204.717 159.59C206.023 160.337 207.05 161.363 207.797 162.67C208.59 163.93 208.987 165.33 208.987 166.87V199H176.087ZM176.087 193.26H203.177V181.57H173.357V190.53C173.357 191.277 173.613 191.93 174.127 192.49C174.687 193.003 175.34 193.26 176.087 193.26ZM216.36 199V145.1H222.1V175.83H233.3L249.26 158.4H256.82V158.47L238.41 178.7L256.75 198.93V199H249.26L233.3 181.57H222.1V199H216.36ZM280.686 199V145.1H286.426V158.4H313.586C315.126 158.4 316.526 158.797 317.786 159.59C319.093 160.337 320.12 161.363 320.866 162.67C321.66 163.93 322.056 165.33 322.056 166.87V190.53C322.056 192.07 321.66 193.493 320.866 194.8C320.12 196.06 319.093 197.087 317.786 197.88C316.526 198.627 315.126 199 313.586 199H280.686ZM289.226 193.26H313.586C314.333 193.26 314.963 193.003 315.476 192.49C316.036 191.93 316.316 191.277 316.316 190.53V166.87C316.316 166.123 316.036 165.493 315.476 164.98C314.963 164.42 314.333 164.14 313.586 164.14H289.226C288.48 164.14 287.826 164.42 287.266 164.98C286.706 165.493 286.426 166.123 286.426 166.87V190.53C286.426 191.277 286.706 191.93 287.266 192.49C287.826 193.003 288.48 193.26 289.226 193.26ZM327.236 199V166.87C327.236 165.33 327.609 163.93 328.356 162.67C329.149 161.363 330.176 160.337 331.436 159.59C332.742 158.797 334.166 158.4 335.706 158.4H358.526V164.14H335.706C334.959 164.14 334.306 164.42 333.746 164.98C333.232 165.493 332.976 166.123 332.976 166.87V199H327.236ZM363.056 199V158.4H368.796V199H363.056ZM363.056 150.84V145.1H368.796V150.84H363.056ZM384.991 199C383.451 199 382.028 198.627 380.721 197.88C379.461 197.087 378.435 196.06 377.641 194.8C376.895 193.493 376.521 192.07 376.521 190.53V166.87C376.521 165.33 376.895 163.93 377.641 162.67C378.435 161.363 379.461 160.337 380.721 159.59C382.028 158.797 383.451 158.4 384.991 158.4H417.751V164.14H384.991C384.245 164.14 383.591 164.42 383.031 164.98C382.518 165.493 382.261 166.123 382.261 166.87V190.53C382.261 191.277 382.518 191.93 383.031 192.49C383.591 193.003 384.245 193.26 384.991 193.26H417.891V199H384.991ZM424.036 199V145.1H429.776V175.83H440.976L456.936 158.4H464.496V158.47L446.086 178.7L464.426 198.93V199H456.936L440.976 181.57H429.776V199H424.036Z" fill="black"/>
<path d="M38.25 211.425C38.25 212.875 37.0747 214.05 35.625 214.05C34.1753 214.05 33 212.875 33 211.425C33 209.975 34.1753 208.8 35.625 208.8C37.0747 208.8 38.25 209.975 38.25 211.425ZM48.75 211.425C48.75 212.875 47.5747 214.05 46.125 214.05C44.6753 214.05 43.5 212.875 43.5 211.425C43.5 209.975 44.6753 208.8 46.125 208.8C47.5747 208.8 48.75 209.975 48.75 211.425ZM59.25 211.425C59.25 212.875 58.0747 214.05 56.625 214.05C55.1753 214.05 54 212.875 54 211.425C54 209.975 55.1753 208.8 56.625 208.8C58.0747 208.8 59.25 209.975 59.25 211.425ZM69.75 211.425C69.75 212.875 68.5747 214.05 67.125 214.05C65.6753 214.05 64.5 212.875 64.5 211.425C64.5 209.975 65.6753 208.8 67.125 208.8C68.5747 208.8 69.75 209.975 69.75 211.425ZM80.25 211.425C80.25 212.875 79.0747 214.05 77.625 214.05C76.1753 214.05 75 212.875 75 211.425C75 209.975 76.1753 208.8 77.625 208.8C79.0747 208.8 80.25 209.975 80.25 211.425ZM90.75 211.425C90.75 212.875 89.5747 214.05 88.125 214.05C86.6753 214.05 85.5 212.875 85.5 211.425C85.5 209.975 86.6753 208.8 88.125 208.8C89.5747 208.8 90.75 209.975 90.75 211.425ZM101.25 211.425C101.25 212.875 100.075 214.05 98.625 214.05C97.1753 214.05 96 212.875 96 211.425C96 209.975 97.1753 208.8 98.625 208.8C100.075 208.8 101.25 209.975 101.25 211.425ZM111.75 211.425C111.75 212.875 110.575 214.05 109.125 214.05C107.675 214.05 106.5 212.875 106.5 211.425C106.5 209.975 107.675 208.8 109.125 208.8C110.575 208.8 111.75 209.975 111.75 211.425ZM122.25 211.425C122.25 212.875 121.075 214.05 119.625 214.05C118.175 214.05 117 212.875 117 211.425C117 209.975 118.175 208.8 119.625 208.8C121.075 208.8 122.25 209.975 122.25 211.425ZM132.75 211.425C132.75 212.875 131.575 214.05 130.125 214.05C128.675 214.05 127.5 212.875 127.5 211.425C127.5 209.975 128.675 208.8 130.125 208.8C131.575 208.8 132.75 209.975 132.75 211.425ZM143.25 211.425C143.25 212.875 142.075 214.05 140.625 214.05C139.175 214.05 138 212.875 138 211.425C138 209.975 139.175 208.8 140.625 208.8C142.075 208.8 143.25 209.975 143.25 211.425ZM153.75 211.425C153.75 212.875 152.575 214.05 151.125 214.05C149.675 214.05 148.5 212.875 148.5 211.425C148.5 209.975 149.675 208.8 151.125 208.8C152.575 208.8 153.75 209.975 153.75 211.425ZM164.25 211.425C164.25 212.875 163.075 214.05 161.625 214.05C160.175 214.05 159 212.875 159 211.425C159 209.975 160.175 208.8 161.625 208.8C163.075 208.8 164.25 209.975 164.25 211.425ZM174.75 211.425C174.75 212.875 173.575 214.05 172.125 214.05C170.675 214.05 169.5 212.875 169.5 211.425C169.5 209.975 170.675 208.8 172.125 208.8C173.575 208.8 174.75 209.975 174.75 211.425ZM185.25 211.425C185.25 212.875 184.075 214.05 182.625 214.05C181.175 214.05 180 212.875 180 211.425C180 209.975 181.175 208.8 182.625 208.8C184.075 208.8 185.25 209.975 185.25 211.425ZM195.75 211.425C195.75 212.875 194.575 214.05 193.125 214.05C191.675 214.05 190.5 212.875 190.5 211.425C190.5 209.975 191.675 208.8 193.125 208.8C194.575 208.8 195.75 209.975 195.75 211.425ZM206.25 211.425C206.25 212.875 205.075 214.05 203.625 214.05C202.175 214.05 201 212.875 201 211.425C201 209.975 202.175 208.8 203.625 208.8C205.075 208.8 206.25 209.975 206.25 211.425ZM216.75 211.425C216.75 212.875 215.575 214.05 214.125 214.05C212.675 214.05 211.5 212.875 211.5 211.425C211.5 209.975 212.675 208.8 214.125 208.8C215.575 208.8 216.75 209.975 216.75 211.425ZM227.25 211.425C227.25 212.875 226.075 214.05 224.625 214.05C223.175 214.05 222 212.875 222 211.425C222 209.975 223.175 208.8 224.625 208.8C226.075 208.8 227.25 209.975 227.25 211.425ZM237.75 211.425C237.75 212.875 236.575 214.05 235.125 214.05C233.675 214.05 232.5 212.875 232.5 211.425C232.5 209.975 233.675 208.8 235.125 208.8C236.575 208.8 237.75 209.975 237.75 211.425ZM248.25 211.425C248.25 212.875 247.075 214.05 245.625 214.05C244.175 214.05 243 212.875 243 211.425C243 209.975 244.175 208.8 245.625 208.8C247.075 208.8 248.25 209.975 248.25 211.425ZM258.75 211.425C258.75 212.875 257.575 214.05 256.125 214.05C254.675 214.05 253.5 212.875 253.5 211.425C253.5 209.975 254.675 208.8 256.125 208.8C257.575 208.8 258.75 209.975 258.75 211.425ZM269.25 211.425C269.25 212.875 268.075 214.05 266.625 214.05C265.175 214.05 264 212.875 264 211.425C264 209.975 265.175 208.8 266.625 208.8C268.075 208.8 269.25 209.975 269.25 211.425ZM279.75 211.425C279.75 212.875 278.575 214.05 277.125 214.05C275.675 214.05 274.5 212.875 274.5 211.425C274.5 209.975 275.675 208.8 277.125 208.8C278.575 208.8 279.75 209.975 279.75 211.425ZM290.25 211.425C290.25 212.875 289.075 214.05 287.625 214.05C286.175 214.05 285 212.875 285 211.425C285 209.975 286.175 208.8 287.625 208.8C289.075 208.8 290.25 209.975 290.25 211.425ZM300.75 211.425C300.75 212.875 299.575 214.05 298.125 214.05C296.675 214.05 295.5 212.875 295.5 211.425C295.5 209.975 296.675 208.8 298.125 208.8C299.575 208.8 300.75 209.975 300.75 211.425ZM311.25 211.425C311.25 212.875 310.075 214.05 308.625 214.05C307.175 214.05 306 212.875 306 211.425C306 209.975 307.175 208.8 308.625 208.8C310.075 208.8 311.25 209.975 311.25 211.425ZM321.75 211.425C321.75 212.875 320.575 214.05 319.125 214.05C317.675 214.05 316.5 212.875 316.5 211.425C316.5 209.975 317.675 208.8 319.125 208.8C320.575 208.8 321.75 209.975 321.75 211.425ZM332.25 211.425C332.25 212.875 331.075 214.05 329.625 214.05C328.175 214.05 327 212.875 327 211.425C327 209.975 328.175 208.8 329.625 208.8C331.075 208.8 332.25 209.975 332.25 211.425ZM342.75 211.425C342.75 212.875 341.575 214.05 340.125 214.05C338.675 214.05 337.5 212.875 337.5 211.425C337.5 209.975 338.675 208.8 340.125 208.8C341.575 208.8 342.75 209.975 342.75 211.425ZM353.25 211.425C353.25 212.875 352.075 214.05 350.625 214.05C349.175 214.05 348 212.875 348 211.425C348 209.975 349.175 208.8 350.625 208.8C352.075 208.8 353.25 209.975 353.25 211.425ZM363.75 211.425C363.75 212.875 362.575 214.05 361.125 214.05C359.675 214.05 358.5 212.875 358.5 211.425C358.5 209.975 359.675 208.8 361.125 208.8C362.575 208.8 363.75 209.975 363.75 211.425ZM374.25 211.425C374.25 212.875 373.075 214.05 371.625 214.05C370.175 214.05 369 212.875 369 211.425C369 209.975 370.175 208.8 371.625 208.8C373.075 208.8 374.25 209.975 374.25 211.425ZM384.75 211.425C384.75 212.875 383.575 214.05 382.125 214.05C380.675 214.05 379.5 212.875 379.5 211.425C379.5 209.975 380.675 208.8 382.125 208.8C383.575 208.8 384.75 209.975 384.75 211.425ZM395.25 211.425C395.25 212.875 394.075 214.05 392.625 214.05C391.175 214.05 390 212.875 390 211.425C390 209.975 391.175 208.8 392.625 208.8C394.075 208.8 395.25 209.975 395.25 211.425ZM405.75 211.425C405.75 212.875 404.575 214.05 403.125 214.05C401.675 214.05 400.5 212.875 400.5 211.425C400.5 209.975 401.675 208.8 403.125 208.8C404.575 208.8 405.75 209.975 405.75 211.425ZM416.25 211.425C416.25 212.875 415.075 214.05 413.625 214.05C412.175 214.05 411 212.875 411 211.425C411 209.975 412.175 208.8 413.625 208.8C415.075 208.8 416.25 209.975 416.25 211.425ZM426.75 211.425C426.75 212.875 425.575 214.05 424.125 214.05C422.675 214.05 421.5 212.875 421.5 211.425C421.5 209.975 422.675 208.8 424.125 208.8C425.575 208.8 426.75 209.975 426.75 211.425ZM437.25 211.425C437.25 212.875 436.075 214.05 434.625 214.05C433.175 214.05 432 212.875 432 211.425C432 209.975 433.175 208.8 434.625 208.8C436.075 208.8 437.25 209.975 437.25 211.425ZM447.75 211.425C447.75 212.875 446.575 214.05 445.125 214.05C443.675 214.05 442.5 212.875 442.5 211.425C442.5 209.975 443.675 208.8 445.125 208.8C446.575 208.8 447.75 209.975 447.75 211.425ZM458.25 211.425C458.25 212.875 457.075 214.05 455.625 214.05C454.175 214.05 453 212.875 453 211.425C453 209.975 454.175 208.8 455.625 208.8C457.075 208.8 458.25 209.975 458.25 211.425Z" fill="black"/>
</svg>
